X:44
T: EIN BISSERLE LIEB UND E BISSERLE TREU
N: F0130
O: Europa, Mitteleuropa, Deutschland
R: Liebes - Lied, Spott
M: 3/8
L: 1/16
K: F
C2 | FGA2B2 | c2c2c2 | d2d2d2 | c4
cc | B2B2B2 | A2A2A2 | G2G2G2 | F4
c2 | G2c3B | A2f3c | c2A2G2 | F4

@@@ Tune index: 5475
